theme/dist/icons/linkedin.svg

<svg fill="none" height="24" viewBox="0 0 24 24" width="24" xmlns="http://www.w3.org/2000/svg"><path d="m20.625 2.625h-17.25c-.41484 0-.75.33516-.75.75v17.25c0 .4148.33516.75.75.75h17.25c.4148 0 .75-.3352.75-.75v-17.25c0-.41484-.3352-.75-.75-.75zm-12.43828 15.9773h-2.78203v-8.94839h2.78203zm-1.38984-10.17183c-.31893 0-.63069-.09457-.89586-.27176-.26518-.17718-.47185-.42902-.5939-.72366-.12205-.29465-.15398-.61887-.09176-.93166.06222-.3128.21579-.60012.44131-.82563.22551-.22551.51283-.37909.82562-.44131.3128-.06222.63702-.03028.93166.09176.29465.12205.54649.32873.72367.5939.17718.26518.27175.57694.27175.89586-.00234.89062-.72421 1.6125-1.61249 1.6125zm11.80542 10.17183h-2.7796v-4.3523c0-1.0383-.0188-2.3719-1.4461-2.3719-1.4461 0-1.6688 1.1297-1.6688 2.2969v4.4273h-2.77733v-8.94839h2.66723v1.22339h.0375c.3703-.7031 1.2773-1.44605 2.632-1.44605 2.8172 0 3.3351 1.85395 3.3351 4.26325z" fill="#000"/></svg>

<svg fill="none" height="24" viewBox="0 0 24 24" width="24" xmlns="http://www.w3.org/2000/svg"><path d="m20.625 2.625H3.375c-.41484.0-.75.33516-.75.75v17.25c0 .4148.33516.75.75.75h17.25c.4148.0.75-.3352.75-.75V3.375c0-.41484-.3352-.75-.75-.75zM8.18672 18.6023h-2.78203V9.65391h2.78203zM6.79688 8.43047c-.31893.0-.63069-.09457-.89586-.27176-.26518-.17718-.47185-.42902-.5939-.72366-.12205-.29465-.15398-.61887-.09176-.93166.06222-.3128.21579-.60012.44131-.82563.22551-.22551.51283-.37909.82562-.44131.3128-.06222.63702-.03028.93166.09176.29465.12205.54649.32873.72367.5939.17718.26518.27175.57694.27175.89586-.00234.89062-.72421 1.6125-1.61249 1.6125zM18.6023 18.6023h-2.7796V14.25c0-1.0383-.0188-2.3719-1.4461-2.3719-1.4461.0-1.6688 1.1297-1.6688 2.2969v4.4273H9.93047V9.65391h2.66723v1.22339h.0375c.3703-.7031 1.2773-1.44605 2.632-1.44605 2.8172.0 3.3351 1.85395 3.3351 4.26325z" fill="#000"/></svg>
